public/img/Meteor.svg

<svg xmlns="http://www.w3.org/2000/svg" width="2000" height="2000" preserveAspectRatio="none"><g mask="url(&quot;#a&quot;)" fill="none"><path fill="rgba(37, 41, 52, 1)" d="M0 0h2000v2000H0z"/><path d="m628 277 678-678M1804 1420 3147 77" stroke-width="8" stroke="url(#b)" stroke-linecap="round" class="BottomLeft"/><path d="m954 1706-799 799" stroke-width="6" stroke="url(#b)" stroke-linecap="round" class="BottomLeft"/><path d="m1905 1621 621-621M175 503-952 1630" stroke-width="6" stroke="url(#c)" stroke-linecap="round" class="TopRight"/><path d="m230 549-923 923" stroke-width="8" stroke="url(#d)" stroke-linecap="round" class="TopRight"/><path d="M923 698-519 2140" stroke-width="8" stroke="url(#b)" stroke-linecap="round" class="BottomLeft"/><path d="M640 1534 46 2128" stroke-width="10" stroke="url(#c)" stroke-linecap="round" class="TopRight"/><path d="M1789 975 324 2440" stroke-width="6" stroke="url(#b)" stroke-linecap="round" class="BottomLeft"/><path d="M1408 1368 2497 279" stroke-width="8" stroke="url(#c)" stroke-linecap="round" class="TopRight"/><path d="m1991 981 642-642" stroke-width="8" stroke="url(#e)" stroke-linecap="round" class="BottomLeft"/><path d="m1127 1987-840 840" stroke-width="10" stroke="url(#e)" stroke-linecap="round" class="BottomLeft"/><path d="M1261 434 2626-931" stroke-width="6" stroke="url(#b)" stroke-linecap="round" class="BottomLeft"/><path d="M613 1118 1955-224" stroke-width="10" stroke="url(#b)" stroke-linecap="round" class="BottomLeft"/><path d="m1821 765-600 600" stroke-width="6" stroke="url(#d)" stroke-linecap="round" class="TopRight"/><path d="M144 790-958 1892" stroke-width="6" stroke="url(#b)" stroke-linecap="round" class="BottomLeft"/><path d="m248 1993 967-967" stroke-width="6" stroke="url(#d)" stroke-linecap="round" class="TopRight"/><path d="M1811 1397 414 2794" stroke-width="10" stroke="url(#b)" stroke-linecap="round" class="BottomLeft"/><path d="m1457 724 562-562" stroke-width="8" stroke="url(#e)" stroke-linecap="round" class="BottomLeft"/><path d="M1265 1766 2684 347" stroke-width="8" stroke="url(#b)" stroke-linecap="round" class="BottomLeft"/><path d="m637 1999 623-623" stroke-width="10" stroke="url(#b)" stroke-linecap="round" class="BottomLeft"/><path d="m1387 1795-614 614" stroke-width="8" stroke="url(#c)" stroke-linecap="round" class="TopRight"/><path d="m17 1981-1120 1120" stroke-width="10" stroke="url(#b)" stroke-linecap="round" class="BottomLeft"/><path d="m85 1448 846-846" stroke-width="6" stroke="url(#b)" stroke-linecap="round" class="BottomLeft"/><path d="m1304 1669-539 539" stroke-width="8" stroke="url(#d)" stroke-linecap="round" class="TopRight"/><path d="M1243 37 571 709M1560 166 892 834" stroke-width="8" stroke="url(#e)" stroke-linecap="round" class="BottomLeft"/><path d="m117 531-960 960" stroke-width="8" stroke="url(#d)" stroke-linecap="round" class="TopRight"/><path d="M1079 388 2247-780" stroke-width="10" stroke="url(#c)" stroke-linecap="round" class="TopRight"/><path d="m446 1352-737 737" stroke-width="8" stroke="url(#c)" stroke-linecap="round" class="TopRight"/><path d="m1282 177-971 971" stroke-width="6" stroke="url(#b)" stroke-linecap="round" class="BottomLeft"/><path d="M1821 1763 2926 658M152 641 1423-630" stroke-width="10" stroke="url(#c)" stroke-linecap="round" class="TopRight"/><path d="M1452 866 2457-139" stroke-width="6" stroke="url(#c)" stroke-linecap="round" class="TopRight"/><path d="m1031 1928-830 830" stroke-width="10" stroke="url(#b)" stroke-linecap="round" class="BottomLeft"/><path d="m1080 1467-651 651" stroke-width="8" stroke="url(#e)" stroke-linecap="round" class="BottomLeft"/><path d="M236 850 1650-564" stroke-width="6" stroke="url(#e)" stroke-linecap="round" class="BottomLeft"/><path d="m508 1209 761-761M1542 82 747 877" stroke-width="8" stroke="url(#d)" stroke-linecap="round" class="TopRight"/><path d="M967 942-358 2267" stroke-width="10" stroke="url(#e)" stroke-linecap="round" class="BottomLeft"/><path d="M1317 420 2567-830" stroke-width="6" stroke="url(#e)" stroke-linecap="round" class="BottomLeft"/><path d="m1120 1651 965-965" stroke-width="8" stroke="url(#c)" stroke-linecap="round" class="TopRight"/><path d="M1559 1226 2583 202" stroke-width="6" stroke="url(#d)" stroke-linecap="round" class="TopRight"/><path d="m292 38-791 791" stroke-width="6" stroke="url(#e)" stroke-linecap="round" class="BottomLeft"/><path d="m401 1182-959 959" stroke-width="8" stroke="url(#d)" stroke-linecap="round" class="TopRight"/><path d="M640 1995-846 3481" stroke-width="6" stroke="url(#e)" stroke-linecap="round" class="BottomLeft"/><path d="m564 1665-703 703" stroke-width="8" stroke="url(#b)" stroke-linecap="round" class="BottomLeft"/><path d="M1234 1503 199 2538" stroke-width="10" stroke="url(#d)" stroke-linecap="round" class="TopRight"/><path d="m530 924 605-605M1201 310-133 1644" stroke-width="10" stroke="url(#c)" stroke-linecap="round" class="TopRight"/><path d="M822 1863-579 3264" stroke-width="10" stroke="url(#b)" stroke-linecap="round" class="BottomLeft"/><path d="M1018 1937-241 3196" stroke-width="8" stroke="url(#e)" stroke-linecap="round" class="BottomLeft"/><path d="m186 1377-1390 1390" stroke-width="10" stroke="url(#d)" stroke-linecap="round" class="TopRight"/><path d="M1835 591 3326-900" stroke-width="8" stroke="url(#b)" stroke-linecap="round" class="BottomLeft"/><path d="m837 1437-521 521M544 1366-503 2413" stroke-width="6" stroke="url(#c)" stroke-linecap="round" class="TopRight"/><path d="m760 389 1473-1473" stroke-width="8" stroke="url(#e)" stroke-linecap="round" class="BottomLeft"/><path d="m532 1938-978 978" stroke-width="6" stroke="url(#e)" stroke-linecap="round" class="BottomLeft"/><path d="M716 426 40 1102" stroke-width="8" stroke="url(#c)" stroke-linecap="round" class="TopRight"/><path d="m1508 504 915-915" stroke-width="10" stroke="url(#b)" stroke-linecap="round" class="BottomLeft"/><path d="m975 1049-993 993" stroke-width="6" stroke="url(#c)" stroke-linecap="round" class="TopRight"/><path d="m565 262 577-577" stroke-width="8" stroke="url(#b)" stroke-linecap="round" class="BottomLeft"/><path d="M1781 1671 3264 188" stroke-width="6" stroke="url(#d)" stroke-linecap="round" class="TopRight"/><path d="M861 317 29 1149" stroke-width="8" stroke="url(#b)" stroke-linecap="round" class="BottomLeft"/><path d="m641 1420 782-782" stroke-width="6" stroke="url(#d)" stroke-linecap="round" class="TopRight"/><path d="m1910 1666 819-819" stroke-width="8" stroke="url(#b)" stroke-linecap="round" class="BottomLeft"/><path d="M452 1456-689 2597" stroke-width="8" stroke="url(#c)" stroke-linecap="round" class="TopRight"/><path d="m896 1425 827-827" stroke-width="10" stroke="url(#c)" stroke-linecap="round" class="TopRight"/><path d="M1660 1838 2827 671" stroke-width="6" stroke="url(#c)" stroke-linecap="round" class="TopRight"/><path d="m1534 612-845 845" stroke-width="6" stroke="url(#e)" stroke-linecap="round" class="BottomLeft"/><path d="M859 68 281 646" stroke-width="8" stroke="url(#e)" stroke-linecap="round" class="BottomLeft"/></g><defs><linearGradient x1="100%" y1="0%" x2="0%" y2="100%" id="b"><stop stop-color="rgba(255, 167, 167, 0)" offset="0"/><stop stop-color="rgba(255, 167, 167, 1)" offset="1"/></linearGradient><linearGradient x1="0%" y1="100%" x2="100%" y2="0%" id="c"><stop stop-color="rgba(255, 255, 255, 0)" offset="0"/><stop stop-color="rgba(255, 255, 255, 0.48)" offset="1"/></linearGradient><linearGradient x1="0%" y1="100%" x2="100%" y2="0%" id="d"><stop stop-color="rgba(255, 167, 167, 0)" offset="0"/><stop stop-color="rgba(255, 167, 167, 1)" offset="1"/></linearGradient><linearGradient x1="100%" y1="0%" x2="0%" y2="100%" id="e"><stop stop-color="rgba(255, 255, 255, 0)" offset="0"/><stop stop-color="rgba(255, 255, 255, 0.48)" offset="1"/></linearGradient><mask id="a"><path fill="#fff" d="M0 0h2000v2000H0z"/></mask></defs></svg>

<svg xmlns="http://www.w3.org/2000/svg" version="1.1" xmlns:xlink="http://www.w3.org/1999/xlink" xmlns:svgjs="http://svgjs.com/svgjs" width="2000" height="2000" preserveAspectRatio="none" viewBox="0 0 2000 2000">
    <g mask="url(&quot;#SvgjsMask1220&quot;)" fill="none">
        <rect width="2000" height="2000" x="0" y="0" fill="rgba(37, 41, 52, 1)"></rect>
        <path d="M628 277L1306 -401" stroke-width="8" stroke="url(#SvgjsLinearGradient1221)" stroke-linecap="round" class="BottomLeft"></path>
        <path d="M1804 1420L3147 77" stroke-width="8" stroke="url(#SvgjsLinearGradient1221)" stroke-linecap="round" class="BottomLeft"></path>
        <path d="M954 1706L155 2505" stroke-width="6" stroke="url(#SvgjsLinearGradient1221)" stroke-linecap="round" class="BottomLeft"></path>
        <path d="M1905 1621L2526 1000" stroke-width="6" stroke="url(#SvgjsLinearGradient1222)" stroke-linecap="round" class="TopRight"></path>
        <path d="M175 503L-952 1630" stroke-width="6" stroke="url(#SvgjsLinearGradient1222)" stroke-linecap="round" class="TopRight"></path>
        <path d="M230 549L-693 1472" stroke-width="8" stroke="url(#SvgjsLinearGradient1223)" stroke-linecap="round" class="TopRight"></path>
        <path d="M923 698L-519 2140" stroke-width="8" stroke="url(#SvgjsLinearGradient1221)" stroke-linecap="round" class="BottomLeft"></path>
        <path d="M640 1534L46 2128" stroke-width="10" stroke="url(#SvgjsLinearGradient1222)" stroke-linecap="round" class="TopRight"></path>
        <path d="M1789 975L324 2440" stroke-width="6" stroke="url(#SvgjsLinearGradient1221)" stroke-linecap="round" class="BottomLeft"></path>
        <path d="M1408 1368L2497 279" stroke-width="8" stroke="url(#SvgjsLinearGradient1222)" stroke-linecap="round" class="TopRight"></path>
        <path d="M1991 981L2633 339" stroke-width="8" stroke="url(#SvgjsLinearGradient1224)" stroke-linecap="round" class="BottomLeft"></path>
        <path d="M1127 1987L287 2827" stroke-width="10" stroke="url(#SvgjsLinearGradient1224)" stroke-linecap="round" class="BottomLeft"></path>
        <path d="M1261 434L2626 -931" stroke-width="6" stroke="url(#SvgjsLinearGradient1221)" stroke-linecap="round" class="BottomLeft"></path>
        <path d="M613 1118L1955 -224" stroke-width="10" stroke="url(#SvgjsLinearGradient1221)" stroke-linecap="round" class="BottomLeft"></path>
        <path d="M1821 765L1221 1365" stroke-width="6" stroke="url(#SvgjsLinearGradient1223)" stroke-linecap="round" class="TopRight"></path>
        <path d="M144 790L-958 1892" stroke-width="6" stroke="url(#SvgjsLinearGradient1221)" stroke-linecap="round" class="BottomLeft"></path>
        <path d="M248 1993L1215 1026" stroke-width="6" stroke="url(#SvgjsLinearGradient1223)" stroke-linecap="round" class="TopRight"></path>
        <path d="M1811 1397L414 2794" stroke-width="10" stroke="url(#SvgjsLinearGradient1221)" stroke-linecap="round" class="BottomLeft"></path>
        <path d="M1457 724L2019 162" stroke-width="8" stroke="url(#SvgjsLinearGradient1224)" stroke-linecap="round" class="BottomLeft"></path>
        <path d="M1265 1766L2684 347" stroke-width="8" stroke="url(#SvgjsLinearGradient1221)" stroke-linecap="round" class="BottomLeft"></path>
        <path d="M637 1999L1260 1376" stroke-width="10" stroke="url(#SvgjsLinearGradient1221)" stroke-linecap="round" class="BottomLeft"></path>
        <path d="M1387 1795L773 2409" stroke-width="8" stroke="url(#SvgjsLinearGradient1222)" stroke-linecap="round" class="TopRight"></path>
        <path d="M17 1981L-1103 3101" stroke-width="10" stroke="url(#SvgjsLinearGradient1221)" stroke-linecap="round" class="BottomLeft"></path>
        <path d="M85 1448L931 602" stroke-width="6" stroke="url(#SvgjsLinearGradient1221)" stroke-linecap="round" class="BottomLeft"></path>
        <path d="M1304 1669L765 2208" stroke-width="8" stroke="url(#SvgjsLinearGradient1223)" stroke-linecap="round" class="TopRight"></path>
        <path d="M1243 37L571 709" stroke-width="8" stroke="url(#SvgjsLinearGradient1224)" stroke-linecap="round" class="BottomLeft"></path>
        <path d="M1560 166L892 834" stroke-width="8" stroke="url(#SvgjsLinearGradient1224)" stroke-linecap="round" class="BottomLeft"></path>
        <path d="M117 531L-843 1491" stroke-width="8" stroke="url(#SvgjsLinearGradient1223)" stroke-linecap="round" class="TopRight"></path>
        <path d="M1079 388L2247 -780" stroke-width="10" stroke="url(#SvgjsLinearGradient1222)" stroke-linecap="round" class="TopRight"></path>
        <path d="M446 1352L-291 2089" stroke-width="8" stroke="url(#SvgjsLinearGradient1222)" stroke-linecap="round" class="TopRight"></path>
        <path d="M1282 177L311 1148" stroke-width="6" stroke="url(#SvgjsLinearGradient1221)" stroke-linecap="round" class="BottomLeft"></path>
        <path d="M1821 1763L2926 658" stroke-width="10" stroke="url(#SvgjsLinearGradient1222)" stroke-linecap="round" class="TopRight"></path>
        <path d="M152 641L1423 -630" stroke-width="10" stroke="url(#SvgjsLinearGradient1222)" stroke-linecap="round" class="TopRight"></path>
        <path d="M1452 866L2457 -139" stroke-width="6" stroke="url(#SvgjsLinearGradient1222)" stroke-linecap="round" class="TopRight"></path>
        <path d="M1031 1928L201 2758" stroke-width="10" stroke="url(#SvgjsLinearGradient1221)" stroke-linecap="round" class="BottomLeft"></path>
        <path d="M1080 1467L429 2118" stroke-width="8" stroke="url(#SvgjsLinearGradient1224)" stroke-linecap="round" class="BottomLeft"></path>
        <path d="M236 850L1650 -564" stroke-width="6" stroke="url(#SvgjsLinearGradient1224)" stroke-linecap="round" class="BottomLeft"></path>
        <path d="M508 1209L1269 448" stroke-width="8" stroke="url(#SvgjsLinearGradient1223)" stroke-linecap="round" class="TopRight"></path>
        <path d="M1542 82L747 877" stroke-width="8" stroke="url(#SvgjsLinearGradient1223)" stroke-linecap="round" class="TopRight"></path>
        <path d="M967 942L-358 2267" stroke-width="10" stroke="url(#SvgjsLinearGradient1224)" stroke-linecap="round" class="BottomLeft"></path>
        <path d="M1317 420L2567 -830" stroke-width="6" stroke="url(#SvgjsLinearGradient1224)" stroke-linecap="round" class="BottomLeft"></path>
        <path d="M1120 1651L2085 686" stroke-width="8" stroke="url(#SvgjsLinearGradient1222)" stroke-linecap="round" class="TopRight"></path>
        <path d="M1559 1226L2583 202" stroke-width="6" stroke="url(#SvgjsLinearGradient1223)" stroke-linecap="round" class="TopRight"></path>
        <path d="M292 38L-499 829" stroke-width="6" stroke="url(#SvgjsLinearGradient1224)" stroke-linecap="round" class="BottomLeft"></path>
        <path d="M401 1182L-558 2141" stroke-width="8" stroke="url(#SvgjsLinearGradient1223)" stroke-linecap="round" class="TopRight"></path>
        <path d="M640 1995L-846 3481" stroke-width="6" stroke="url(#SvgjsLinearGradient1224)" stroke-linecap="round" class="BottomLeft"></path>
        <path d="M564 1665L-139 2368" stroke-width="8" stroke="url(#SvgjsLinearGradient1221)" stroke-linecap="round" class="BottomLeft"></path>
        <path d="M1234 1503L199 2538" stroke-width="10" stroke="url(#SvgjsLinearGradient1223)" stroke-linecap="round" class="TopRight"></path>
        <path d="M530 924L1135 319" stroke-width="10" stroke="url(#SvgjsLinearGradient1222)" stroke-linecap="round" class="TopRight"></path>
        <path d="M1201 310L-133 1644" stroke-width="10" stroke="url(#SvgjsLinearGradient1222)" stroke-linecap="round" class="TopRight"></path>
        <path d="M822 1863L-579 3264" stroke-width="10" stroke="url(#SvgjsLinearGradient1221)" stroke-linecap="round" class="BottomLeft"></path>
        <path d="M1018 1937L-241 3196" stroke-width="8" stroke="url(#SvgjsLinearGradient1224)" stroke-linecap="round" class="BottomLeft"></path>
        <path d="M186 1377L-1204 2767" stroke-width="10" stroke="url(#SvgjsLinearGradient1223)" stroke-linecap="round" class="TopRight"></path>
        <path d="M1835 591L3326 -900" stroke-width="8" stroke="url(#SvgjsLinearGradient1221)" stroke-linecap="round" class="BottomLeft"></path>
        <path d="M837 1437L316 1958" stroke-width="6" stroke="url(#SvgjsLinearGradient1222)" stroke-linecap="round" class="TopRight"></path>
        <path d="M544 1366L-503 2413" stroke-width="6" stroke="url(#SvgjsLinearGradient1222)" stroke-linecap="round" class="TopRight"></path>
        <path d="M760 389L2233 -1084" stroke-width="8" stroke="url(#SvgjsLinearGradient1224)" stroke-linecap="round" class="BottomLeft"></path>
        <path d="M532 1938L-446 2916" stroke-width="6" stroke="url(#SvgjsLinearGradient1224)" stroke-linecap="round" class="BottomLeft"></path>
        <path d="M716 426L40 1102" stroke-width="8" stroke="url(#SvgjsLinearGradient1222)" stroke-linecap="round" class="TopRight"></path>
        <path d="M1508 504L2423 -411" stroke-width="10" stroke="url(#SvgjsLinearGradient1221)" stroke-linecap="round" class="BottomLeft"></path>
        <path d="M975 1049L-18 2042" stroke-width="6" stroke="url(#SvgjsLinearGradient1222)" stroke-linecap="round" class="TopRight"></path>
        <path d="M565 262L1142 -315" stroke-width="8" stroke="url(#SvgjsLinearGradient1221)" stroke-linecap="round" class="BottomLeft"></path>
        <path d="M1781 1671L3264 188" stroke-width="6" stroke="url(#SvgjsLinearGradient1223)" stroke-linecap="round" class="TopRight"></path>
        <path d="M861 317L29 1149" stroke-width="8" stroke="url(#SvgjsLinearGradient1221)" stroke-linecap="round" class="BottomLeft"></path>
        <path d="M641 1420L1423 638" stroke-width="6" stroke="url(#SvgjsLinearGradient1223)" stroke-linecap="round" class="TopRight"></path>
        <path d="M1910 1666L2729 847" stroke-width="8" stroke="url(#SvgjsLinearGradient1221)" stroke-linecap="round" class="BottomLeft"></path>
        <path d="M452 1456L-689 2597" stroke-width="8" stroke="url(#SvgjsLinearGradient1222)" stroke-linecap="round" class="TopRight"></path>
        <path d="M896 1425L1723 598" stroke-width="10" stroke="url(#SvgjsLinearGradient1222)" stroke-linecap="round" class="TopRight"></path>
        <path d="M1660 1838L2827 671" stroke-width="6" stroke="url(#SvgjsLinearGradient1222)" stroke-linecap="round" class="TopRight"></path>
        <path d="M1534 612L689 1457" stroke-width="6" stroke="url(#SvgjsLinearGradient1224)" stroke-linecap="round" class="BottomLeft"></path>
        <path d="M859 68L281 646" stroke-width="8" stroke="url(#SvgjsLinearGradient1224)" stroke-linecap="round" class="BottomLeft"></path>
    </g>
    <defs>
        <mask id="SvgjsMask1220">
            <rect width="2000" height="2000" fill="#ffffff"></rect>
        </mask>
        <linearGradient x1="100%" y1="0%" x2="0%" y2="100%" id="SvgjsLinearGradient1221">
            <stop stop-color="rgba(255, 167, 167, 0)" offset="0"></stop>
            <stop stop-color="rgba(255, 167, 167, 1)" offset="1"></stop>
        </linearGradient>
        <linearGradient x1="0%" y1="100%" x2="100%" y2="0%" id="SvgjsLinearGradient1222">
            <stop stop-color="rgba(255, 255, 255, 0)" offset="0"></stop>
            <stop stop-color="rgba(255, 255, 255, 0.48)" offset="1"></stop>
        </linearGradient>
        <linearGradient x1="0%" y1="100%" x2="100%" y2="0%" id="SvgjsLinearGradient1223">
            <stop stop-color="rgba(255, 167, 167, 0)" offset="0"></stop>
            <stop stop-color="rgba(255, 167, 167, 1)" offset="1"></stop>
        </linearGradient>
        <linearGradient x1="100%" y1="0%" x2="0%" y2="100%" id="SvgjsLinearGradient1224">
            <stop stop-color="rgba(255, 255, 255, 0)" offset="0"></stop>
            <stop stop-color="rgba(255, 255, 255, 0.48)" offset="1"></stop>
        </linearGradient>
    </defs>
</svg>
